src/shared/assets/character/add-character/icon-search.svg

<svg preserveAspectRatio="none" width="100%" height="100%" overflow="visible" style="display: block;" viewBox="0 0 16 16" fill="none" xmlns="http://www.w3.org/2000/svg">
<g id="Frame 2117132466">
<path id="Vector" d="M12.5793 10.8662C13.4079 9.73215 13.778 8.32717 13.6157 6.93206C13.4534 5.53695 12.7706 4.25447 11.7038 3.3409C10.637 2.42732 9.26475 1.94995 7.86128 2.00416C6.4578 2.05837 5.12647 2.64018 4.13333 3.63333C3.14018 4.62647 2.55837 5.9578 2.50416 7.36128C2.44995 8.76475 2.92732 10.137 3.8409 11.2038C4.75447 12.2706 6.03695 12.9534 7.43206 13.1157C8.82717 13.278 10.2321 12.9079 11.3662 12.0793L13.0461 13.7592C13.2079 13.9154 13.4246 14.0019 13.6495 14C13.8745 13.998 14.0897 13.9078 14.2487 13.7487C14.4078 13.5897 14.498 13.3745 14.5 13.1495C14.5019 12.9246 14.4154 12.7079 14.2592 12.5461L12.5793 10.8662ZM10.806 4.84617C11.5598 5.6 11.9368 6.50997 11.9368 7.57609C11.9368 8.64221 11.5598 9.55218 10.806 10.306C10.0522 11.0598 9.14221 11.4368 8.07609 11.4368C7.00997 11.4368 6.1 11.0598 5.34617 10.306C4.59234 9.55218 4.21542 8.64221 4.21542 7.57609C4.21542 6.50997 4.59234 5.6 5.34617 4.84617C6.1 4.09234 7.00997 3.71542 8.07609 3.71542C9.14221 3.71542 10.0522 4.09234 10.806 4.84617Z" fill="var(--fill-0, black)" fill-opacity="0.2"/>
</g>
</svg>

<svg xmlns="http://www.w3.org/2000/svg" fill="none" overflow="visible" preserveAspectRatio="none" style="display:block" viewBox="0 0 16 16"><path fill="var(--fill-0, black)" fill-opacity=".2" d="M12.58 10.866a5.576 5.576 0 1 0-1.214 1.213l1.68 1.68a.858.858 0 0 0 1.213-1.213zm-1.774-6.02a3.72 3.72 0 0 1 1.13 2.73 3.72 3.72 0 0 1-1.13 2.73 3.72 3.72 0 0 1-2.73 1.13 3.72 3.72 0 0 1-2.73-1.13 3.72 3.72 0 0 1-1.13-2.73 3.72 3.72 0 0 1 1.13-2.73 3.72 3.72 0 0 1 2.73-1.13 3.72 3.72 0 0 1 2.73 1.13"/></svg>
